assets/settings-hover.svg

<?xml version="1.0" encoding="utf-8"?>
<!-- Generator: Adobe Illustrator 22.0.0, SVG Export Plug-In . SVG Version: 6.00 Build 0)  -->
<svg version="1.1" id="Layer_1" xmlns="http://www.w3.org/2000/svg" xmlns:xlink="http://www.w3.org/1999/xlink" x="0px" y="0px"
	 width="24px" height="24px" viewBox="0 0 24 24" style="enable-background:new 0 0 24 24;" xml:space="preserve">
<style type="text/css">
	.st0{fill:none;}
	.st1{fill:#FFB600;}
</style>
<path class="st0" d="M0,0h24v24H0V0z"/>
<path class="st1" d="M3,17v2h6v-2H3z M3,5v2h10V5H3z M13,21v-2h8v-2h-8v-2h-2v6H13z M7,9v2H3v2h4v2h2V9H7z M21,13v-2H11v2H21z M15,9
	h2V7h4V5h-4V3h-2V9z"/>
</svg>

<svg xmlns="http://www.w3.org/2000/svg" viewBox="0 0 24 24" width="24" height="24">
	<style>
		tspan { white-space:pre }
		.shp0 { fill: none } 
		.shp1 { fill: #ea1e65 } 
	</style>
	<path id="Layer" class="shp0" d="M0 0L24 0L24 24L0 24L0 0Z" />
	<path id="Layer" class="shp1" d="M3 17L3 19L9 19L9 17L3 17ZM3 5L3 7L13 7L13 5L3 5ZM13 21L13 19L21 19L21 17L13 17L13 15L11 15L11 21L13 21ZM7 9L7 11L3 11L3 13L7 13L7 15L9 15L9 9L7 9ZM21 13L21 11L11 11L11 13L21 13ZM15 9L17 9L17 7L21 7L21 5L17 5L17 3L15 3L15 9Z" />
</svg>
